X:1
T: The Army and Navy Reel
C:
R:Reel
I:speed 232
Q:232
K:A
M:4/4
L:1/8
|:A,2A2 A,A ((3AGA)|cA ec aA ((3AGA)|FA EA DA CA|Bc dB GE DB,|
A,2A2 A,A ((3AGA)|cA ec aA ((3AGA)|FA GA EA CA|1GA Bd cAA2:|2BA GB A2cd|
ea ce Ac EA|GE GB dB GE|ea ce Ac Ec|dB GB A2cd|
ea ce Ac EA|GE GB dB GE|ec dB cG AF|1ED B,C A,2cd:|2ED B,C A,2A,2||
